X: 9436
T: Danny Meehan's
R: hornpipe
M: 4/4
K: Eminor
EF|:GAFA GBde|dcBA GADG|EFGE DGBG|Ad^ce d2 EF|
GAFA GBde|dcBA GADG|EFGE DGBG|1 ADFA G2 EF:|2 ADFA G3 F||
EFGA BGBG|EFGA BGBd|c2 (3BcB AcGc|(3FGA (3GFE ^DF B,2|
EFGA BGBG|EFGA BGBd|c2 (3BcB AEFA|AGFA G3 F|
Eeed BdeB|Eeed BdeB|cEBE AEGE|(3FGA (3GFE ^DF B,2|
EFGA BcBG|EFGA BcBd|c2 (3BcB A2G2|GBdB G4||

